X:15
T:Dennis Murphy's
R:polka
M:2/4
L:1/8
K:Dmaj
ef/e/ ce|Ae ce|f/g/a/f/ ec|BA F2|
ef/e/ ce|Ae ce|f/g/a/f/ ec|BA A2:||
|:ce fa/f/|ec BA/B/|ce f/g/a/f/|ec B2|
ce fa/f/|ec BA|ef/e/ cB|BA B2:||
